X: 1
T: DARK HAIRED LASS -- REEL
B: Ryan's Mammoth Collection of Fiddle Tunes
R: reel
M: 2/4
L: 1/16
Z: Contributed 20000424160235 by John Chambers jchambers:casc.com
K: Ador
(ued) "Segno"\
| (cBA)(B c)(de)(^c | d2)(gd) (BG)(GB) | {c}cBAB cde^c | dfe^c Aced |
| (=cBA)(B c)(de)(^c | d2)(gd) BGGB | {c}cBAB cde^c | dfe^c A2 |]
(AB) \
| ^cdef g2(ge) | f2(fd) {a}gfed | ^cdef gfeg | fde^c A2(AB) |
| ^cdef g2(ge) | ((3fga)(fd) egfb | afge fdec | dfec Aced "Segno"[|]|]
